X:1
T:Title
%%score { ( 1 4 ) | ( 2 3 ) }
L:1/8
Q:1/4=106
M:4/4
K:C
V:1 treble nm="Grand Piano"
V:4 treble 
V:2 bass 
V:3 bass 
V:1
 C2 E2 [EG]2 [Gc]2 | [GB]2 .[A,FA]2 [CEG]4 | [DF]2 [CE]2 [B,D]2 [FA]2 | [EG]2 [DF]-[B,DF] E4 | %4
w: G.~F.~Root * * *||||
 C2 E2 [EG]2 [Gc]2 | [GB]2 .[A,FA]2 [CEG]4 | [DGB]2 [DGc]2 [DGd]2 [EG]2 | %7
w: |||
[M:7/8] [DGB]2 [C^FA]2 [B,G]3 |[M:1/4] [B,G]>[B,G] |[M:4/4] [B,FA]2 [B,FA]2 [B,FB]2 [B,FA]2 | %10
w: |||
 [CEG]6 [EA]>[EB] | [Ec]2 [Ec]2 [Fd]2 [CEc]2 | [DGB]6 [DFB]>[DFB] | [Ec]2 [Ec]2 z2 [Ec]>[Ec] | %14
w: ||||
 c2 c2 z2 c>A | B2 B4 A>B | [Ec]4 z2 [Ec]>[Ec] | [Ec]2 [Ec]2 z2 [Ec]>[Ec] | c2 c2 z2 c>A | %19
w: |||||
 B2 B4 [FA]>[FB] | [Ec]6 z2 |] %21
w: ||
V:2
 [C,E,]2 [C,G,C]2 [C,C]2 [C,E,]2 | C,-[C,G,] z B, C,4 | G,2 G,2 G,2 G,2 | G,2 G,,2 [C,C]4 | %4
 [C,E,]2 [C,G,C]2 [C,C]2 [C,E,]2 | F,G, z B, C,4 | G,,2 A,,2 B,,2 C,2 |[M:7/8] D,2 D,2 G,,3 | %8
[M:1/4] G,,>G,, |[M:4/4] G,,2 G,,2 G,,2 G,,2 | C,2 C,>C, C,2 [C,C]>[C,C] | %11
 [C,C]2 [C,G,]2 [B,,G,]2 C,2 | G,2 G,2 G,2 G,>G, | [C,C]2 [C,C]2 z2 [C,G,]>[C,G,] | %14
 [F,A,F]2 [F,A,F]2 z2[K:treble] [F,A,F]>[F,A,F] | [G,F]2 [G,F]4 [G,DF]>[G,DF] | %16
 [C,C]4 z2 [C,G,]>[C,G,] | [C,G,]2 [C,G,]2 z2 [C,G,]>[C,G,] | %18
 [F,A,F]2 [F,A,F]2 z2[K:treble] [F,A,F]>[F,A,F] | [G,F]2 [G,F]4[K:bass] [G,,G,]>[G,,G,] | %20
 [C,G,]6 z2 |] %21
V:3
 x8 | .F,2 C,2 z4 | x8 | x8 | x8 | C,2 C,2 z4 | x8 |[M:7/8] x7 |[M:1/4] x2 |[M:4/4] x8 | x8 | x8 | %12
 x8 | x8 | x6[K:treble] x2 | x8 | x8 | x8 | x6[K:treble] x2 | x6[K:bass] x2 | x8 |] %21
V:4
 x8 | x8 | x8 | z2 .A,2 z4 | x8 | x8 | x8 |[M:7/8] x7 |[M:1/4] x2 |[M:4/4] x8 | x8 | x8 | x8 | x8 | %14
 x8 | x8 | x8 | x8 | x8 | x8 | x8 |] %21

